!!!!SEGMENT: pl-sa--l-1643--026_anonim--na-boze-cialo-o-quam-suavis-est-domine.krn
!!!cenid: 16xx:1381
!!!COM: Anonim
!!!COM-rismid: pe30004985
!!!CDT:
!!!CNT:
!!!OTL: Na Boże ciało
!!!PDT:
!!!AGN: Sacred
!!!SMS-siglum: PL-SA
!!!SMS-shelfmark: L 1643
!!!SMS-shelfwork: 026 G
!!!SMS-variant:
!!!SMS-altvar:
!!!NIFC-rismid: 1001064628
!!!URL-scan: http://repozytorium.nifc.pl/skany/pl-sa-nut--l1643
!!!ONB-nifc: UWAGA: 8 ksiąg. Primi chori: 1mus Cantus (x), C 2dus (47-48), C 3tius (x), Bassus (x); Secondi chori: Primus Cantus (x), C 2dus (x), Altus (x), Bassus (107-108). UWAGA: metrum 2/2 i 3/2. Nie dodawać pustych linii, chyba że w rękopisie pojawiają się dodatkowe oznaczenia dotyczące pełnej obsady (a 4, a 8 itp.)
**kern	**text	**text	**kern	**text	**text
*part2	*part2	*part2	*part1	*part1	*part1
*staff2	*staff2	*staff2	*staff1	*staff1	*staff1
*I"Baſsus 2di Chori	*	*	*I"Cantus 2dus Primi Chori.	*	*
*I'II Coro B	*	*	*I'I Coro S 2	*	*
*clefC3	*	*	*clefC1	*	*
*k[b-]	*	*	*k[b-]	*	*
*M2/2	*	*	*M2/2	*	*
*met(C|)	*	*	*met(C|)	*	*
=1-	=1-	=1-	=1-	=1-	=1-
0r	.	.	0a	O	.
=2-	=2-	=2-	=2-	=2-	=2-
.	.	.	.	.	.
=3-	=3-	=3-	=3-	=3-	=3-
*lig	*	*	*	*	*
1f	O	.	1cc	quam	.
=4-	=4-	=4-	=4-	=4-	=4-
*col	*	*	*	*	*
2.d/	.	.	1b-	ſu-	.
*Xlig	*	*	*	*	*
4c/	.	.	.	.	.
*Xcol	*	*	*	*	*
=5-	=5-	=5-	=5-	=5-	=5-
1F	quam	.	1cc	-a-	.
=6-	=6-	=6-	=6-	=6-	=6-
2.B-/	ſu-	.	1.b-	-uis	.
4B-/	-a-	.	.	.	.
=7-	=7-	=7-	=7-	=7-	=7-
2B-/	-uis	.	.	.	.
2f\	eſt	.	2cc\	eſt	.
=8-	=8-	=8-	=8-	=8-	=8-
2.c/	do-	.	2.cc\	do-	.
4c/	-mi-	.	4g/	-mi-	.
=9-	=9-	=9-	=9-	=9-	=9-
2f\	-ne	.	2a\	-ne,	.
2.B-/	ſpi-	.	2r	.	.
=10-	=10-	=10-	=10-	=10-	=10-
.	.	.	0r	.	.
4B-/	-ri-	.	.	.	.
2c/	-tuſ	.	.	.	.
=11-	=11-	=11-	=11-	=11-	=11-
1G	tu-	.	.	.	.
=12-	=12-	=12-	=12-	=12-	=12-
2c/	-uſ,	.	2r	.	.
2r	.	.	2.b-\	ſpi-	.
=13-	=13-	=13-	=13-	=13-	=13-
0r	.	.	.	.	.
.	.	.	4b-\	-ri-	.
.	.	.	2cc\	-tuſ	.
=14-	=14-	=14-	=14-	=14-	=14-
.	.	.	1b-	tu-	.
=15-	=15-	=15-	=15-	=15-	=15-
2r	.	.	2cc\	-us,	.
2.f\	Spi-	.	2r	.	.
=16-	=16-	=16-	=16-	=16-	=16-
.	.	.	0r	.	.
4f\	-ri-	.	.	.	.
2c/	-tuſ	.	.	.	.
=17-	=17-	=17-	=17-	=17-	=17-
1G	tu-	.	.	.	.
=18-	=18-	=18-	=18-	=18-	=18-
1c	-uſ,	.	1r	.	.
=19-	=19-	=19-	=19-	=19-	=19-
*M3/2	*	*	*M3/2	*	*
!LO:SIC:v:t=custos f	!	!	!	!	!
!LO:TX:a:t=3:problem:numer obok pięciolinii	!	!	!	!	!
2c/	qui	.	2cc\	qui	.
!LO:LB:g=original	!	!	!	!	!
2f\	ut	.	2dd\	ut	.
2d\	dul-	.	2cc\	dul-	.
=20-	=20-	=20-	=20-	=20-	=20-
2.c/	-ce-	.	2.cc\	-ce-	.
!	!	!	!LO:TX:a:t=2:problem:numer obok pięciolinii	!	!
!	!	!	!LO:SIC:v:t=custos cc	!	!
4c/	-dÿ-	.	4cc\	-di-	.
!	!	!	!LO:LB:g=original	!	!
2F/	-nem,	.	2cc\	-nem,	.
=21-	=21-	=21-	=21-	=21-	=21-
!	!	!	!LO:TX:t=P:problem:pauza 0.r w II Coro B	!	!
0.r	.	.	0.ryy	.	.
=22-	=22-	=22-	=22-	=22-	=22-
.	.	.	.	.	.
=23-	=23-	=23-	=23-	=23-	=23-
*M2/2	*	*	*M2/2	*	*
*met(C|)	*	*	*met(C|)	*	*
1r	.	.	1b-	tu-	.
=24-	=24-	=24-	=24-	=24-	=24-
2r	.	.	2cc\	-am.	.
2f\	in	.	2r	.	.
=25-	=25-	=25-	=25-	=25-	=25-
2.B-/	fi-	.	1r	.	.
4B-/	-li-	.	.	.	.
=26-	=26-	=26-	=26-	=26-	=26-
2f\	-oſ,	.	2r	.	.
2r	.	.	2b-\	de-	.
=27-	=27-	=27-	=27-	=27-	=27-
1r	.	.	2.g/	-mon-	.
.	.	.	4a\	-ſtra-	.
=28-	=28-	=28-	=28-	=28-	=28-
2r	.	.	2b-\	-reſ,	.
2B-/	in	.	2r	.	.
=29-	=29-	=29-	=29-	=29-	=29-
2.e-X\	fi-	.	1r	.	.
4e-\	-li-	.	.	.	.
=30-	=30-	=30-	=30-	=30-	=30-
2B-/	-oſ,	.	2r	.	.
2r	.	.	1dd\	de-	.
=31-	=31-	=31-	=31-	=31-	=31-
0r	.	.	.	.	.
.	.	.	2cc\	-mon-	.
=32-	=32-	=32-	=32-	=32-	=32-
.	.	.	1b-	-ſtra-	.
=33-	=33-	=33-	=33-	=33-	=33-
2r	.	.	2cc\	-reſ,	.
2f\	pa-	.	2a\	pa-	.
=34-	=34-	=34-	=34-	=34-	=34-
1c	-ne	.	1cc	-ne	.
=35-	=35-	=35-	=35-	=35-	=35-
2G/	ſu-	.	2b-\	ſu-	.
2G/	-a-	.	2b-\	-a-	.
=36-	=36-	=36-	=36-	=36-	=36-
2.c/	-uiſ-	.	2.cc\	-uiſ-	.
4c/	-ſi-	.	4cc\	-si-	.
=37-	=37-	=37-	=37-	=37-	=37-
2f\	-mo	.	2a\	-mo,	.
!LO:SIC:v:t=custos B-	!	!	!	!	!
2r	.	.	2r	.	.
!LO:LB:g=original	!	!	!	!	!
=38-	=38-	=38-	=38-	=38-	=38-
0r	.	.	0r	.	.
=39-	=39-	=39-	=39-	=39-	=39-
.	.	.	.	.	.
=40-	=40-	=40-	=40-	=40-	=40-
1r	.	.	1r	.	.
=41-	=41-	=41-	=41-	=41-	=41-
2r	.	.	2r	.	.
2B-/	pa-	.	2b-\	pa-	.
=42-	=42-	=42-	=42-	=42-	=42-
!	!	!	!LO:SIC:v:t=custos b-	!	!
1f	-ne	.	1b-	-ne	.
!	!	!	!LO:LB:g=original	!	!
=43-	=43-	=43-	=43-	=43-	=43-
2e-X\	ſu-	.	2b-\	ſu-	.
2f\	-a-	.	2b-\	-a-	.
=44-	=44-	=44-	=44-	=44-	=44-
2.f\	-uiſ-	.	2.cc\	-uiſ-	.
4f\	-ſi-	.	4cc\	-si-	.
=45-	=45-	=45-	=45-	=45-	=45-
2B-/	-mo,	.	2b-\	-mo,	.
2r	.	.	2r	.	.
=46-	=46-	=46-	=46-	=46-	=46-
0r	.	.	00r	.	.
=47-	=47-	=47-	=47-	=47-	=47-
.	.	.	.	.	.
=48-	=48-	=48-	=48-	=48-	=48-
1r	.	.	.	.	.
=49-	=49-	=49-	=49-	=49-	=49-
2r	.	.	.	.	.
2f\	e-	.	.	.	.
=50-	=50-	=50-	=50-	=50-	=50-
4f\	-ſu-	.	1r	.	.
4f\	-ri-	.	.	.	.
2B-/	-en-	.	.	.	.
=51-	=51-	=51-	=51-	=51-	=51-
2f\	-teſ,	.	2r	.	.
2r	.	.	2b-\	re-	.
=52-	=52-	=52-	=52-	=52-	=52-
1r	.	.	2g/	-pleſ	.
.	.	.	2a\	bo-	.
=53-	=53-	=53-	=53-	=53-	=53-
2r	.	.	2b-\	-nis,	.
2B-/	e-	.	2r	.	.
=54-	=54-	=54-	=54-	=54-	=54-
4B-/	-ſu-	.	1r	.	.
4B-/	-ri-	.	.	.	.
2e-X\	-en-	.	.	.	.
=55-	=55-	=55-	=55-	=55-	=55-
2B-/	-teſ	.	2r	.	.
2r	.	.	2cc\	re-	.
=56-	=56-	=56-	=56-	=56-	=56-
1r	.	.	2dd\	-ples	.
.	.	.	2cc\	bo-	.
=57-	=57-	=57-	=57-	=57-	=57-
2r	.	.	2cc\	-nis	.
2f\	fa-	.	2a\	fa-	.
=58-	=58-	=58-	=58-	=58-	=58-
2c/	-ſtÿ-	.	2g/	-ſti-	.
2f\	-dy-	.	2a\	-di-	.
=59-	=59-	=59-	=59-	=59-	=59-
!LO:SIC:v:t=custos f	!	!	!	!	!
!LO:SIC:v:t=custos słowny ſos	!	!	!	!	!
2B-/	-o-	.	2b-\	-o-	.
!LO:PB:g=original	!	!	!	!	!
2f\	-ſos	.	2a\	-ſos	.
=60-	=60-	=60-	=60-	=60-	=60-
2.B-/	dÿ-	.	2.b-\	di-	.
4B-/	-ui-	.	4b-\	-ui-	.
=61-	=61-	=61-	=61-	=61-	=61-
!	!	!	! 	!	!
2f\	-teſ,	.	2a\	-teſ	.
2r	.	.	2r	.	.
=62-	=62-	=62-	=62-	=62-	=62-
0r	.	.	0r	.	.
=63-	=63-	=63-	=63-	=63-	=63-
.	.	.	.	.	.
=64-	=64-	=64-	=64-	=64-	=64-
!	!	!	!LO:SIC:v:t=custos dd	!	!
!	!	!	!LO:SIC:v:t=custos słowny faſ 	!	!
1r	.	.	1r	.	.
!	!	!	!LO:PB:g=original	!	!
=65-	=65-	=65-	=65-	=65-	=65-
2r	.	.	2r	.	.
2B-/	fa-	.	2dd\	fa-	.
=66-	=66-	=66-	=66-	=66-	=66-
2B-/	-ſtÿ-	.	2b-\	-ſti-	.
2B-/	-di-	.	2b-\	-di-	.
=67-	=67-	=67-	=67-	=67-	=67-
2f\	-o-	.	2cc\	-o-	.
2B-/	-ſos	.	2b-\	-ſos	.
=68-	=68-	=68-	=68-	=68-	=68-
2.e-X\	dÿ-	.	2.b-\	di-	.
4e-\	-ui-	.	4b-\	-ui-	.
=69-	=69-	=69-	=69-	=69-	=69-
2B-/	-teſ,	.	2b-\	-teſ,	.
2r	.	.	2r	.	.
=70-	=70-	=70-	=70-	=70-	=70-
0r	.	.	00r	.	.
=71-	=71-	=71-	=71-	=71-	=71-
.	.	.	.	.	.
=72-	=72-	=72-	=72-	=72-	=72-
1r	.	.	.	.	.
=73-	=73-	=73-	=73-	=73-	=73-
!LO:TX:t=P:problem:brak pauzy 1r	!	!	!	!	!
1ryy	.	.	.	.	.
=74-	=74-	=74-	=74-	=74-	=74-
2r	.	.	2r	.	.
2B-/	i-	.	2b-\	i-	.
=75-	=75-	=75-	=75-	=75-	=75-
2F/	-na-	.	2b-\	-na-	.
2B-/	-neſ,	.	2b-\	-neſ,	.
=76-	=76-	=76-	=76-	=76-	=76-
2r	.	.	2r	.	.
2B-/	i-	.	2dd\	i-	.
=77-	=77-	=77-	=77-	=77-	=77-
2e-X\	-na-	.	2cc\	-na-	.
2B-/	-neſ,	.	2dd\	-neſ,	.
=78-	=78-	=78-	=78-	=78-	=78-
2r	.	.	2r	.	.
!LO:SIC:v:t=custos c	!	!	!	!	!
2B-/	i-	.	2dd\	i-	.
!LO:LB:g=original	!	!	!	!	!
=79-	=79-	=79-	=79-	=79-	=79-
2c/	-na-	.	2dd\	-na-	.
2G/	-neſ,	.	2dd\	-neſ,	.
=80-	=80-	=80-	=80-	=80-	=80-
2r	.	.	2r	.	.
2G/	i-	.	2dd\	i-	.
=81-	=81-	=81-	=81-	=81-	=81-
!	!	!	!LO:TX:b:t=P:problem:♯ below	!	!
2A/	-na-	.	2cc#X\	-na-	.
2d\	-neſ,	.	2dd\	-neſ	.
=82-	=82-	=82-	=82-	=82-	=82-
2B-/	i-	.	2b-\	i-	.
!	!	!	!LO:SIC:v:t=custos b-	!	!
2f\	-na-	.	2ccny\	-na-	.
!	!	!	!LO:LB:g=original	!	!
=83-	=83-	=83-	=83-	=83-	=83-
!LO:TX:t=P:problem:oddech jako rozdzielacz słów	!	!	!	!	!
2B-,</	-neſ,	.	2b-\	-neſ	.
2f\	dÿ-	.	2cc\	di-	.
=84-	=84-	=84-	=84-	=84-	=84-
4f\	-mit-	.	1a	-mit-	.
4eny\	.	.	.	.	.
4d\	.	.	.	.	.
4c\	.	.	.	.	.
=85-	=85-	=85-	=85-	=85-	=85-
2B-/	-tenſ	.	2b-\	-tens	.
2f\	i-	.	2a\	i-	.
=86-	=86-	=86-	=86-	=86-	=86-
0c	-na-	.	2cc\	-na-	.
.	.	.	2cc\	-nes	.
=87-	=87-	=87-	=87-	=87-	=87-
.	.	.	2g/	i-	.
.	.	.	2cc\	-na-	.
=88-	=88-	=88-	=88-	=88-	=88-
1fl;;	-neſ;	.	1ccl;;	-nes,	.
==	==	==	==	==	==
*-	*-	*-	*-	*-	*-
!!!system-decoration: s1,s2
!!!RDF**kern: < = below
!!!RDF**kern: l = terminal long
!!!ENC: Andrzej Kubiczek
!!!END: 2021-10-05
!!!ENC: Marta Lawrence
!!!END: 2021-10-08
